X:1
T:Ja vi elsker dette landet
T:Ja vi elsker dette landet
T:fra "Kvartetter for blandet kor"
T:Christian Haslerud
T:Bjørnson
C:Christian Haslerud
Z:Bjørnson
%%score [ 1 2 3 4 ]
L:1/8
Q:1/4=70
M:4/4
K:F
V:1 treble nm="Piano"
V:2 treble nm="Piano"
V:3 treble-8 nm="Piano"
V:4 bass nm="Piano"
V:1
"^Kraftigt"!f! F3 C F2 G2 | (A2 c3/2) B/ A2 G2 | A3 d c2 =B2 | c4 z4 | F3 C F2 G2 | A2 =B2 c2 e2 | %6
w: Ja vi el- sker|det- * te Lan- det|som det sti- ger|frem|fu- ret, veir- bidt|o- ver Van- det|
 e3 d =B2 c2 | A4 z4 |!p! B3 A G3/2 F/ E3/2 F/ | G4 c2 z2 | d3 c B2 c2 | A4 z4 | %12
w: med de tu- sind|Hjem.|El- sker, el- sker det og|tæn- ker|paa vor Far og|Mor|
!ff!"^Marcato" f2 e2 d2 c2 | B2 A2 G2 d2 | c3 F A2 G2 | F4 z4 |] %16
w: Og den Sa- ga-|nat som sæn- ker|Drøm- me paa vor|Jord.|
V:2
!f! C3 C C2 E2 | (F2 F3/2) E/ F2 E2 | F3 F E2 D2 | E4 z4 | C3 C C2 E2 | F2 A2 A2 G2 | %6
w: Ja vi el- sker|det- * te Lan- det|som det sti- ger|frem|fu- ret, veir- bidt|o- ver Van- det|
 A3 =B ^G2 A2 | A4 z4 |!p! E3 F E3/2 C/ C3/2 C/ | E4 E2 z2 | F3 F F2 E2 | C4 z4 |!ff! F2 F2 F2 F2 | %13
w: med de tu- sind|Hjem.|El- sker, el- sker det og|tæn- ker|paa vor Far og|Mor|Og den Sa- ga-|
 C2 C2 F2 F2 | F3 F F2 F2 | C4 z4 |] %16
w: nat som sæn- ker|Drøm- me paa vor|Jord.|
V:3
!f! A3 A A2 c2 | (c2 c3/2) c/ c2 c2 | c3 A G2 G2 | G4 z4 | A3 A A2 c2 | c2 d2 e2 e2 | f3 f d2 e2 | %7
w: Ja vi el- sker|det- * te Lan- det|som det sti- ger|frem|fu- ret, veir- bidt|o- ver Van- det|med de tu- sind|
 c4 z4 |!p! G3 A B3/2 A/ G3/2 A/ | B4 B2 z2 | A3 A G2 G2 | A4 z4 |!ff! A2 A2 B2 c2 | E2 F2 F2 _A2 | %14
w: Hjem.|El- sker, el- sker det og|tæn- ker|paa vor Far og|Mor|Og den Sa- ga-|nat som sæn- ker|
 =A3 A c2 B2 | A4 z4 |] %16
w: Drøm- me paa vor|Jord.|
V:4
!f! F,3 F, F,2 C,2 | (F,2 A,3/2) G,/ F,2 C2 | F,3 F, G,2 G,2 | C,4 z4 | F,3 F, F,2 C,2 | %5
w: Ja vi el- sker|det- * te Lan- det|som det sti- ger|frem|fu- ret, veir- bidt|
 F,2 F,2 E,2 C,2 | D,3 D, E,2 E,2 | A,4 z4 |!p! C,3 C, C,3/2 C,/ C,3/2 C,/ | C,4 C,2 z2 | %10
w: o- ver Van- det|med de tu- sind|Hjem.|El- sker, el- sker det og|tæn- ker|
 C,3 C, C,2 C,2 | F,4 z4 |!ff! D,2 C,2 B,,2 A,,2 | G,,2 F,,2 B,,2 =B,,2 | C,3 C, C,2 C,2 | %15
w: paa vor Far og|Mor|Og den Sa- ga-|nat som sæn- ker|Drøm- me paa vor|
 F,4 z4 |] %16
w: Jord.|

